X:9
T:Boddington
C:Gavin Atkin
M:6/8
R:jig
K:D
e|fed A2A|GBd Ace|fed A2A|GBd e2e|fed A2A|GBd Ace|GBG ABc|d3  d2:|
A|FAF fed|GBd gfe|ABA ABc|dFA fed|FAF fed|GBd gfe|ABA ABc|d3  d2:|

